X: 36
T:Panic Polka
M:2/4
L:1/8
R:Polka
Z:Steve Mansfield
K:C
Gc cB/c/ | dB cd/e/ | fd ec | d/e/d/c/ BA | Gc cB/c/ | dB cd/e/ |
fd ec | dB c2 :: ef/g/ ef/g/ | ec B>c | de f/e/d/c/ |
AB AG | ef/g/ ef/g/ | ec B>c | de f/e/d/c/ | AB c2 :|

